X:920
T:Reel 920
M:4/4
K:Gmaj
L:1/8
dc|BGAF DGGF|D>G (3GFG DEFA|BGAF GFGA|BGAF G2:||:ef|gfge f2df|egfa gfdf|gabg fgfd|egfa gdef|gfge fgaf|efef dfed|gfef gfec|BGAF G2|
